!!!CDT:
!!!PTL: in Pietro Vecoli, Il primo libro de madrigali a sei voci
!!!PPP: Paris
!!!PPR: Le Roy et Ballard
!!!PDT: 1587
!!!PUB-format:
!!!RISM: V 1084
!!!rime: 81
!!!AGN: Madrigal
!!!SCT: Trm0081a
!!!SCA: Trm0081a
!!!original-voices: 6
!!!extant-voices: 1
!!!complete: N
!!!final: G
!!!COM: Vecoli, Regolo
!!!OTL: Costei, che su la fronte ha sparsa al vento
**kern	**text
*part1	*part1
*staff1	*staff1
*I"Alto	*
*I'A	*
*oclefC2	*
*clefG2	*
*k[b-]	*
*omet(C)	*
*M4/2	*
=1	=1
!!LO:TX:a:t=Prima parte.   DI REGOLO VECOLI.
2r	.
2g	Que-
4g	-sta,
4g	ch'in
4g	su
4f#X	la
=2	=2
2g	fron-
2d	-t'ha
4c	spar-
4d	-s'al
2e-X	ven-
=3	=3
4d	-to
4f	L'er-
4g	-ran-
4a	-te
4b-y	chio-
4b-y	-ma
4a	d'or,
4f	<L'er-
=4	=4
4g	-ran-
4a	-te
4g	chio-
4g	-ma
2dd	d'or,>
2r	.
=5	=5
1r	.
2r	.
2a	For-
=6	=6
4a	-tu-
2d	-na
2g	pare;
4f	An-
4g	-zi è
[4g	ve-
=7	=7
8g]	.
8g	-ra
4g	for-
4e-X	-tu-
4e-i	.
4.d	.
8c	.
2B-y	.
=8	=8
2c	-na,
4r	.
4.a	<An-
8a	-zi è
4a	ve-
4b-y	-ra
4a	for-
=9	=9
2a	-tu-
2d	-na,>
1r	.
=10	=10
1r	.
4r	.
4g	e
4a	può
[4f	be-
=11	=11
4f]	.
2b-y	-a-
4a	.
2b-y	-re
2a	E
=12	=12
2a	puol
2.g#X	mi-
4g#X	-se-
2a	-ri
=13	=13
4a	far-
4b-y	-n'in
4a	un
4gnXi	mo-
4f#X	-men-
4f#X	-to,
4r	.
4b-y	<E
=14	=14
2a	puol
2.a	mi-
4a	-se-
2a	-ri
=15	=15
2g	far-
2g	-n'in
4f	un
4f	mo-
2f	-men-
=16	=16
4f	-to,>
2b-y	in
4.g	un
8a	.
4b-y	.
4a	.
[4g	mo-
=17	=17
4g]	.
4f	-men-
2g	-to.
1r	.
=18	=18
0r	.
=19	=19
4r	.
2f	O
4f	di
4g	gem-
2f	-me
4b-y	che
=20	=20
4.g	man-
8a	.
4b-y	.
4a	-di e-
4cc	-stra-
4cc	-neo
2b-y	ma-
=21	=21
4a	-re,
2cc	e-
2b-y	-stra-
4g	-neo
4b-y	ma-
4a	-re,
=22	=22
2r	.
4a	Ma
4a	te-
4g	-so-
2cc	-ri
4b-y	d'a-
=23	=23
4cc	-mor,
4a	co-
4a	-se
4a	più
2a	ra-
2a	-re,
=24	=24
4b-y	Ma
4b-y	te-
2a	-so-
4g	-ri
4f	d'a-
2f	-mor,
=25	=25
1r	.
2r	.
4r	.
4g	co-
=26	=26
4a	-se
4b-y	più
4.g	ra-
8a	.
4b-y	.
4a	-re,
2r	.
=27	=27
2r	.
2b-y	Do-
4a	-na,
4b-y	fu-
4cc	-r'e
4a	ri-
=28	=28
2b-y	-to-
2a	-glie,
1r	.
=29	=29
1r	.
2r	.
2d	<Do-
=30	=30
4c	-na,
4A	fu-
4B-y	-r'e
4G	ri-
4A	-to-
4B-y	.
4c	-glie>
4cc	a
=31	=31
4a	suo
4a	ta-
2a	-len-
2d	-to,
2a	a
=32	=32
2b-y	suo
2a	ta-
1g	-len-
=33	=33
0f#X	-to.
=||34	=||34
!!LO:TX:a:t=Seconda parte.
2g	Cie-
4fnXi	-ca
4e	non
2d	già,
2a	se
=35	=35
2b-y	non
2a	quan-
4g	-t'a
4f	mar-
4e	-tì-
8dL	.
8eJ	.
=36	=36
4f#X	.
4g	-ri
4r	.
4a	s'in-
4g	-fin-
4e	-ge
2f#X	tal,
=37	=37
0r	.
=38	=38
1r	.
4r	.
4f	No-
4f	-stri
4g	s'in-
=39	=39
4a	-fin-
2g	.
4f#i	-ge
1g	tal,
=40	=40
0r	.
=41	=41
0r	.
=42	=42
4r	.
2a	Con
4b-y	due
2cc	lu-
4b-y	-ci
4g	se-
=43	=43
4a	-re-
8gL	.
8fJ	.
4g	.
8fL	.
8eJ	.
2d	.
2c	-ne
=44	=44
1r	.
4r	.
4g	e
4f#X	sfa-
4g	-vil-
=45	=45
1a	-lan-
4b-y	-ti,
4b-y	<e
4g	sfa-
[4a	-vil-
=46	=46
4a]	.
2g	-lan-
4f#i	.
2g	-ti.>
2b-y	Chie-
=47	=47
4a	-di
4b-y	qual
4cc	sia
4a	la
4g	ruo-
4a	.
4b-y	.
8aL	.
8gJ	.
=48	=48
2a	.
4a	-ta,
4a	<Chie-
4b-y	-di
4a	qual
4f	sia
4g	la
=49	=49
2a	ruo-
4g	-ta,>
4a	qual
8d	sia
8d	la
2g	ruo-
4f	.
=50	=50
4g	-ta o-
4a	-ve
4g	gl'A-
2f	-man-
2b-y	-ti
4a	Tra-
=51	=51
4b-y	-vol-
4g	.
4a	.
8gL	.
8fJ	.
4g	.
2a	.
4g	.
=52	=52
2.a	-ve
4a	e'l
4b-y	dub-
4a	-bio
4a	lor
4g	fa-
=53	=53
4a	-to
4g	so-
2f#X	-spen-
4f#X	-de?
4g	La
4a	ruo-
4b-y	-ta
=54	=54
4a	sua,
2dd	La
2cc	ruo-
4b-y	-ta
[2a	sua
=55	=55
2a]	.
2b-y	son
2b-y	de'
2cc	be-
=56	=56
4cc	-gli oc-
4a	-ch'i
2a	gi-
4a	-ri,
4b-y	La
4a	ruo-
4g	-ta
=57	=57
4f	sua,
4g	<La
4a	ruo-
4b-y	-ta
2cc	sua>
2f	son
=58	=58
4f	de'
4f	be-
2g	-gli oc-
4g	-ch'i
2b-y	gi-
8aL	.
8gJ	.
=59	=59
4b-y	.
4a	-ri,
4r	.
4f#X	son
2g	de'
2a	be-
=60	=60
2b-y	-gli oc-
2g	-chi
4r	.
4dd	i
4dd	gi-
8ccL	.
8b-yJ	.
=61	=61
4a	.
2g	.
4f#i	.
2g	-ri,
4r	.
4g	La
=62	=62
2a	ruo-
2b-y	-ta
4a	sua,
2dd	<La
[4cc	ruo-
=63	=63
4cc]	.
4b-y	-ta
1a	sua>
2b-y	son
=64	=64
2b-y	de'
2cc	be-
4cc	-gli oc-
4a	-ch'i
2a	gi-
=65	=65
4a	-ri,
4b-y	La
4a	ruo-
4g	-ta
4f	sua,
4g	<La
4a	ruo-
4b-y	-ta
=66	=66
2cc	sua>
2f	son
4f	de'
4f	be-
2g	-gli oc-
=67	=67
4g	-ch'i
2b-y	gi-
8aL	.
8gJ	.
4b-y	.
4a	-ri,
4r	.
4f#X	son
=68	=68
2g	de'
2a	be-
2b-y	-gli oc-
2g	-chi
=69	=69
4r	.
4dd	i
4dd	gi-
8ccL	.
8b-yJ	.
4a	.
2g	.
4f#i	.
=70	=70
0gl	-ri.
==	==
*-	*-
!!!RDF**kern: i = editorial accidental
!!!RDF**kern: l = terminal long
!!!ENC: Emiliano Ricciardi
!!!END: 2018
!!!EED: Ricciardi, Emiliano
!!!EEV: 2018/09/18
!!!YEC: Copyright 2018 Emiliano Ricciardi, All Rights Reserved
!!!ONB: Translated from MusicXML on 2018/09/18 and edited by Craig Stuart Sapp
!!@@BEGIN:	VERSEDATA
!!@SOLERTI:	81
!!@CATALOGNUM:	Trm0081
!!@LAST_MODIFIED: 2020/07/12
!!@TITLE:		Costei, che su la fronte ha sparsa al vento
!!@GENRE:		sonetto
!!@MANUSRC:	A<sub>3</sub>, Amz, Ar, Brn, C, I<sub>4</sub>, I<sub>5</sub>, N<sub>14</sub>, P<sub>4</sub>, V<sub>2</sub>, V<sub>8</sub>, W
!!@PRINTSRC:	7, 8, 9, 11, 12, 13, 15, 20, 24, 29, 33, 67, 85, 87, 141, 166, 169, 170
!!@@BEGIN:	VERSES
!!@ABOUTIT:	Assomiglia a la Fortuna la sua donna, la quale egli aveva veduta co' capegli sparsi su la fronte.
!!@ABOUTEN:	He compares to Fortune his lady, whom he had seen with her hair strewn over her brow.
!!@EDITOR:	Solerti, Angelo
!!@EDITION_TITLE: Le Rime di Torquato Tasso
!!@EDITION_LOC:	Bologna
!!@EDITION_PUB:	Romagnoli-Dall’Acqua
!!@EDITION_DATE:  1898-1902
!!@EDITION_VOL:	2
!!@EDITION_PAGE:  117
!!@TRANSLATOR:	Emiliano Ricciardi and Amyrose McCue Gill
!!@VERSE:
!!	Costei, che su la fronte ha sparsa al vento
!!	L'errante chioma d'òr, Fortuna pare;
!!	Anzi è vera Fortuna, e può beare
!!	E misero può far il più contento.
!!@VERSE:
!!	Dispensatrice no d'oro o d'argento
!!	O di gemme che mandi estraneo mare,
!!	Ma tesori d'Amor, cose più care,
!!	Fura, dona, e ritoglie in un momento.
!!@VERSE:
!!	Cieca non già, ma solo a' miei martìri
!!	Par che s'infligga tale, e cieco uom rende
!!	Con due luci serene e sfavillanti.
!!@VERSE:
!!	Chiedi qual sia la rota ove gli amanti
!!	Travolve e 'l corso lor ferma e sospende?
!!	La rota fanno or de' begli occhi i giri.
!!@TVERSE:
!!	She, upon whose brow the wind has strewn
!!	Her wandering golden locks, appears to be Fortune;
!!	Indeed, she is truly Fortune and can delight,
!!	And can make the happiest man miserable.
!!@TVERSE:
!!	Giver—not of gold or of silver,
!!	Or of gems sent over by a foreign sea—
!!	But treasures of Love, things most dear,
!!	She steals, gives, and retakes in a moment.
!!@TVERSE:
!!	Not yet blind, but only to my sufferings
!!	She appears to pretend to be so, and makes a man blind
!!	With two fair and sparkling eyes.
!!@TVERSE:
!!	Ask [yourself] which is the wheel upon which lovers
!!	Are overwhelmed, and whose flow stops and suspends them?
!!	Now the glances from her beautiful eyes turn the wheel.
!!@@END:		VERSES
!!@OTHER_CRIT_ED:   Torquato Tasso, <i>Rime d’amore (secondo il codice
!!		Chigiano L VIII 302)</i>, eds. Franco Gavazzeni and
!!		Vercingetorige Martignone, vol. 4 of <i>Edizione
!!		Nazionale delle opere di Torquato Tasso</i>
!!		(Alessandria: Edizioni Dell’Orso, 2004), 60.
!!@ATTRIBUTION_ABOUT:	Secure
!!		<br>
!!		Among other authoritative sources (see Literary
!!		Sources), this poem appears in the autograph Chigiano
!!		L.VIII.302 (Biblioteca Vaticana, Rome), compiled
!!		around 1584&ndash;85.
!!@DATING:
!!@DEDICATEE:	Bendidio, Lucrezia
!!@COMMENTARY:
!!@@END:		VERSEDATA
!!@@BEGIN:	SETTING
!!@CATALOGNUM:	Trm0081a
!!@RIMETITLE:	Costei, che su la fronte ha sparsa al vento
!!@SOLERTI:	81
!!@COMPOSER:	Vecoli, Regolo
!!@PRINCEPSTITLE:	in Pietro Vecoli, Il primo libro de madrigali a sei voci
!!@PRINCEPSLOC:	Parigi
!!@NORMLOC:	Paris
!!@NORMPUB:	Le Roy et Ballard
!!@NORMPUBSHORT:	Le Roy et Ballard
!!@PRINCEPSPUB:	Le Roy et Ballard
!!@PRINCEPSYEAR:	1587
!!@PRINCEPSRISM:	V 1084
!!@REPRINTS:	
!!@OVOICES:	6
!!@EXTANTVOICES:	1
!!@PARTBOOKS:	
!!@EXTPARTBOOKS:	
!!@OCLEFS:	C2
!!@OMENSURATION:	C
!!@OKEYSIG:	b-
!!@FINAL:	G
!!@TIMPEDITOR:	Ricciardi, Emiliano
!!@NOTE:		
!!@@END:		SETTING
